lib/preview/nrk-logo-preview-nrk-trafikk-title-below.svg

<svg width="52" height="31" viewBox="0 0 52 31" fill="none" xmlns="http://www.w3.org/2000/svg">
<path d="M0 13.0005V1.00158H3.93719V13.0005H0ZM9.29381 2.91127L11.5581 13.0005H7.24917L4.54549 1.00158H6.96218C7.51635 0.994386 8.05406 1.18974 8.4745 1.55088C8.89562 1.89687 9.18495 2.37719 9.29381 2.91127ZM12.1495 13.0005V1.00158H16.0867V13.0005H12.1495ZM19.0605 5.56459C18.6362 5.56872 18.2188 5.45772 17.8525 5.24345C17.4912 5.03461 17.1911 4.73445 16.9823 4.37309C16.7678 4.00682 16.6568 3.58925 16.661 3.16481C16.6561 2.74295 16.7672 2.32787 16.9823 1.96492C17.1933 1.60748 17.4931 1.31058 17.8525 1.10301C18.2189 0.888991 18.6362 0.778003 19.0605 0.781872C19.4822 0.77733 19.8971 0.888417 20.2602 1.10301C20.616 1.3124 20.9127 1.60905 21.122 1.96492C21.3368 2.32797 21.4479 2.74298 21.4433 3.16481C21.4473 3.58922 21.3363 4.00672 21.122 4.37309C20.9149 4.73286 20.6179 5.03277 20.2602 5.24345C19.8971 5.45847 19.4819 5.56958 19.0599 5.56459H19.0605ZM22.0516 13.0005V1.00158H25.9892V13.0005H22.0516ZM30.9737 7.55872C30.9848 7.57036 31.0693 7.70837 31.2272 7.97276C31.3851 8.23715 31.5906 8.57517 31.8439 8.98678C32.0974 9.39819 32.3649 9.83475 32.6463 10.2965C32.9278 10.7582 33.1926 11.1948 33.4408 11.6063C33.6881 12.0177 33.9697 12.4824 34.2857 13.0005H29.9598C29.6893 12.5611 29.4441 12.164 29.2245 11.8091C29.0048 11.4542 28.7713 11.0711 28.5238 10.6598C28.2758 10.249 28.0306 9.84903 27.7882 9.45995C27.5458 9.07088 27.3375 8.7301 27.1633 8.43755C26.9883 8.1448 26.8671 7.94761 26.7997 7.84602C26.6325 7.59393 26.5336 7.30278 26.5127 7.00103C26.5294 6.71142 26.6226 6.43147 26.7828 6.1896C26.8504 6.07693 26.9743 5.87692 27.1545 5.58962C27.3348 5.30232 27.546 4.96154 27.7882 4.56721C28.0304 4.17288 28.2756 3.77009 28.5238 3.35886C28.772 2.94763 29.0056 2.56172 29.2245 2.20119C29.4445 1.84104 29.6897 1.44107 29.9598 1.0013H34.2857L30.9396 6.45999C30.8361 6.62205 30.7777 6.80883 30.7706 7.00103C30.7818 7.20281 30.8522 7.39681 30.9731 7.55872H30.9737Z" fill="white"/>
<path d="M9.54652 18.1545H0V19.6402H3.88968V30.1418H5.67322V19.6402H9.54624L9.54652 18.1545Z" fill="white"/>
<path d="M13.0289 21.4722C12.7112 21.5571 12.4078 21.688 12.1285 21.8606C11.8388 22.0404 11.571 22.2529 11.3302 22.4937C11.29 22.5337 11.2509 22.5781 11.2112 22.6201V21.3625L9.47863 21.6158V30.142H11.2112V23.7634C11.3399 23.674 11.4732 23.5912 11.6105 23.5155C11.7802 23.4223 11.956 23.3403 12.1367 23.2703C12.3126 23.2028 12.4907 23.1437 12.6721 23.0934C12.8585 23.0416 13.0488 23.0048 13.2412 22.9834C13.447 22.9607 13.6544 22.9551 13.8612 22.9665L14.065 21.3794C13.7169 21.3547 13.367 21.386 13.0289 21.4722Z" fill="white"/>
<path d="M22.7793 29.078C22.6551 29.0894 22.53 29.0708 22.4147 29.0238C22.2993 28.9767 22.1971 28.9027 22.1168 28.8079C21.9593 28.5374 21.8938 28.2236 21.93 27.9131L21.9639 24.4351C21.9676 24.0704 21.9219 23.707 21.828 23.3545C21.7456 23.0454 21.6075 22.7536 21.4203 22.4934C21.2313 22.239 20.9913 22.0263 20.7154 21.8688C20.3949 21.6877 20.0483 21.5568 19.6877 21.4804C19.2469 21.386 18.7967 21.3408 18.3457 21.3456C17.988 21.3454 17.6307 21.3679 17.2759 21.4129C16.9405 21.4548 16.6083 21.5197 16.2819 21.6071C15.9793 21.6886 15.6816 21.7873 15.3903 21.9025L15.1862 23.3376C15.4693 23.2363 15.7383 23.1519 15.9931 23.0844C16.2479 23.0169 16.4942 22.9606 16.732 22.9155C16.965 22.8711 17.2004 22.8402 17.4369 22.823C17.6689 22.8059 17.8984 22.7974 18.1252 22.7974C18.4716 22.79 18.8173 22.8298 19.1529 22.9155C19.3976 22.9765 19.6226 23.0986 19.8066 23.2701C19.9705 23.437 20.0876 23.6437 20.1463 23.8695C20.219 24.1479 20.2534 24.4348 20.2486 24.7224L20.2466 25.1445L18.2608 25.2781C17.5817 25.2971 16.9127 25.4461 16.2904 25.7171C15.8247 25.9197 15.4227 26.2434 15.1268 26.6541C14.8757 27.0197 14.7424 27.4525 14.7445 27.8951C14.7414 28.3104 14.8437 28.7197 15.0418 29.0854C15.2497 29.4609 15.5623 29.7687 15.9421 29.9718C16.4055 30.2113 16.9234 30.3276 17.4454 30.3094C17.9347 30.3206 18.4216 30.2404 18.8811 30.0731C19.2782 29.9186 19.6415 29.6893 19.951 29.3977C20.0685 29.2857 20.18 29.1676 20.2851 29.044C20.3182 29.2188 20.3804 29.3868 20.4691 29.5412C20.6204 29.7997 20.8533 30.0015 21.1316 30.1153C21.4392 30.238 21.7684 30.2983 22.0998 30.2926C22.2017 30.2926 22.3009 30.2897 22.3973 30.2841C22.4918 30.2787 22.5855 30.2646 22.6773 30.2419C22.7679 30.2194 22.8498 30.1997 22.9237 30.1828C22.9902 30.168 23.0555 30.1483 23.119 30.1237L23.3061 28.9925C23.2122 29.0244 23.1154 29.047 23.0171 29.06C22.9382 29.071 22.8589 29.077 22.7793 29.078ZM20.2333 28.0524C20.1468 28.1489 20.0521 28.2379 19.9502 28.3183C19.766 28.463 19.5666 28.5875 19.3556 28.6897C19.1455 28.7914 18.9228 28.8652 18.6934 28.9092C18.4555 28.9549 18.2138 28.9775 17.9715 28.9768C17.6946 28.9847 17.4192 28.9328 17.1643 28.8248C16.9571 28.7354 16.7823 28.5852 16.6635 28.3943C16.5457 28.192 16.4869 27.961 16.4936 27.7274C16.4772 27.4459 16.5549 27.1669 16.7144 26.9338C16.8993 26.7193 17.15 26.571 17.4279 26.5117C17.8619 26.4102 18.3072 26.3649 18.7529 26.3767H20.2403L20.2333 28.0524Z" fill="white"/>
<path d="M29.1745 17.5299C28.999 17.4961 28.8206 17.4708 28.6394 17.4539C28.4582 17.437 28.2657 17.4285 28.0619 17.4285C27.6928 17.4262 27.3258 17.4832 26.975 17.5974C26.6416 17.7064 26.3369 17.8881 26.0832 18.1292C25.8206 18.3832 25.6176 18.6916 25.4887 19.0325C25.3385 19.4434 25.2665 19.8785 25.2764 20.3156V21.5313H24.0024V22.8482H25.2764V30.1419H27.009V22.8482H29.3871V21.5313H27.009V20.1299C27.0053 19.9373 27.0369 19.7456 27.1024 19.5643C27.1579 19.4111 27.2479 19.2725 27.3654 19.1591C27.4886 19.0467 27.6373 18.9656 27.7989 18.9227C27.9896 18.8702 28.1868 18.8446 28.3847 18.8468C28.5208 18.8468 28.6505 18.8527 28.7756 18.8637C28.9007 18.8746 29.0216 18.8918 29.1408 18.9143C29.26 18.9368 29.3727 18.9593 29.4805 18.9818C29.5765 19.0008 29.6704 19.0291 29.7608 19.0663L29.6929 17.6649C29.5232 17.6087 29.3501 17.5636 29.1745 17.5299Z" fill="white"/>
<path d="M31.0684 30.142H32.801V21.3625L31.0684 21.6158V30.142Z" fill="white"/>
<path d="M32.5547 17.8252C32.3784 17.7181 32.1753 17.6625 31.9687 17.6648C31.7595 17.6631 31.5538 17.7186 31.3741 17.8252C31.197 17.9283 31.0482 18.0733 30.9409 18.2473C30.8331 18.4225 30.7772 18.6244 30.7796 18.8298C30.7778 19.0377 30.8336 19.2422 30.9409 19.4207C31.0448 19.5973 31.1944 19.743 31.3741 19.8428C31.5555 19.9442 31.7605 19.9966 31.9687 19.9947C32.1742 19.9971 32.3766 19.9447 32.5547 19.8428C32.7295 19.7423 32.8733 19.5963 32.9709 19.4207C33.0729 19.2404 33.1257 19.0366 33.1238 18.8298C33.1263 18.6255 33.0734 18.4243 32.9709 18.2473C32.87 18.0741 32.7269 17.929 32.5547 17.8252Z" fill="white"/>
<path d="M42.8401 21.5312H40.7168L37.8101 24.7053H37.1835V17.3947L35.4509 17.648V30.1418H37.1835V26.0054H37.2119L40.6826 30.1418H42.9248L38.8044 25.527L42.8401 21.5312Z" fill="white"/>
<path d="M47.7223 25.4826L51.7581 21.4868H49.6347L46.7281 24.6609H46.1015V17.3506L44.3689 17.6038V30.0977H46.1015V25.9612H46.1298L49.6005 30.0977H51.8427L47.7223 25.4826Z" fill="white"/>
</svg>

<svg xmlns="http://www.w3.org/2000/svg" viewBox="0 0 52 31"><path fill="#fff" d="M0 13V1.003h3.937V13H0ZM9.294 2.912l2.264 10.09H7.25L4.545 1h2.417a2.276 2.276 0 0 1 1.513.55c.42.346.71.826.819 1.36Zm2.855 10.09V1h3.938v12h-3.938Zm6.912-7.436a2.382 2.382 0 0 1-2.4-2.4 2.301 2.301 0 0 1 .321-1.2 2.41 2.41 0 0 1 3.278-.862c.356.21.653.506.862.862.215.363.326.778.321 1.2a2.35 2.35 0 0 1-.321 1.208 2.4 2.4 0 0 1-.862.87 2.302 2.302 0 0 1-1.2.322ZM22.05 13V1h3.938v12h-3.937Zm8.923-5.442c.01.011.095.15.253.414s.364.602.617 1.014a313.36 313.36 0 0 1 1.597 2.62c.247.41.529.875.845 1.394H29.96c-.27-.44-.516-.837-.736-1.192-.22-.355-.453-.738-.7-1.15-.248-.41-.493-.81-.736-1.2-.242-.388-.45-.729-.625-1.021-.175-.293-.296-.49-.363-.592a1.747 1.747 0 0 1-.287-.845c.016-.29.11-.57.27-.811.067-.113.191-.313.371-.6a182.106 182.106 0 0 0 1.37-2.23l.7-1.159.736-1.2h4.326L30.94 6.46a1.08 1.08 0 0 0-.17.541c.012.202.082.396.203.558ZM9.547 18.154H0v1.486h3.89v10.502h1.783V19.64h3.873v-1.486ZM13.029 21.472a3.366 3.366 0 0 0-.9.389 4.44 4.44 0 0 0-.799.633c-.04.04-.08.084-.119.126v-1.258l-1.732.254v8.526h1.732v-6.379a4.555 4.555 0 0 1 .926-.493c.176-.067.354-.126.535-.177a3.62 3.62 0 0 1 1.19-.127l.203-1.587a3.26 3.26 0 0 0-1.036.093ZM22.78 29.078a.778.778 0 0 1-.663-.27 1.445 1.445 0 0 1-.187-.895l.034-3.478a4.038 4.038 0 0 0-.136-1.08c-.082-.31-.22-.601-.408-.862a2.296 2.296 0 0 0-.705-.624 3.61 3.61 0 0 0-1.027-.389 6.1 6.1 0 0 0-1.342-.134c-.358 0-.715.022-1.07.067a7.38 7.38 0 0 0-.994.194c-.303.082-.6.18-.892.296l-.204 1.435a10.02 10.02 0 0 1 1.546-.422c.233-.045.468-.076.705-.093.232-.017.461-.026.688-.026.347-.007.692.033 1.028.119.245.06.47.183.654.354.164.167.28.374.34.6.072.278.106.565.102.852l-.002.422-1.986.134a5.307 5.307 0 0 0-1.97.44 2.82 2.82 0 0 0-1.164.936 2.173 2.173 0 0 0-.383 1.241c-.003.415.1.825.298 1.19.208.376.52.684.9.887.463.24.981.356 1.503.337.49.012.977-.069 1.436-.236a3.31 3.31 0 0 0 1.07-.675 4.65 4.65 0 0 0 .334-.354c.033.175.095.343.184.497.151.259.384.46.663.574.307.123.636.183.968.178.102 0 .2-.003.297-.009a1.53 1.53 0 0 0 .28-.042c.09-.023.173-.042.247-.06.066-.014.131-.034.195-.058l.187-1.131c-.094.031-.19.054-.289.067a1.893 1.893 0 0 1-.238.018Zm-2.547-1.026a2.261 2.261 0 0 1-.283.266 3.27 3.27 0 0 1-.594.372c-.21.101-.433.175-.663.22-.238.045-.48.067-.722.067a1.928 1.928 0 0 1-.807-.152 1.105 1.105 0 0 1-.5-.43 1.254 1.254 0 0 1-.17-.668c-.017-.281.06-.56.22-.793a1.3 1.3 0 0 1 .714-.422c.434-.102.88-.147 1.325-.135h1.487l-.007 1.675ZM29.174 17.53a5.556 5.556 0 0 0-1.112-.102 3.442 3.442 0 0 0-1.087.17 2.358 2.358 0 0 0-1.486 1.434c-.15.411-.223.846-.213 1.284v1.215h-1.274v1.317h1.274v7.294h1.733v-7.294h2.378v-1.317H27.01V20.13a1.575 1.575 0 0 1 .093-.566 1.07 1.07 0 0 1 .263-.405c.124-.112.272-.193.434-.236.19-.053.388-.078.586-.076.136 0 .265.006.39.017.126.01.247.028.366.05.119.023.232.045.34.068.095.019.19.047.28.084l-.068-1.401a4.117 4.117 0 0 0-.519-.135ZM31.068 30.142h1.733v-8.78l-1.733.254v8.526ZM32.555 17.825a1.105 1.105 0 0 0-.586-.16 1.147 1.147 0 0 0-.595.16 1.244 1.244 0 0 0-.433.422 1.087 1.087 0 0 0-.161.583 1.15 1.15 0 0 0 .595 1.013c.18.101.386.154.594.152.205.002.408-.05.586-.152.175-.1.318-.247.416-.422.102-.18.155-.384.153-.591a1.135 1.135 0 0 0-.153-.583 1.196 1.196 0 0 0-.416-.422ZM42.84 21.531h-2.123l-2.907 3.174h-.627v-7.31l-1.732.253v12.494h1.733v-4.137h.028l3.47 4.137h2.243l-4.12-4.615 4.035-3.996ZM47.722 25.483l4.036-3.996h-2.123l-2.907 3.174h-.627v-7.31l-1.732.253v12.494h1.733V25.96h.028l3.47 4.137h2.243l-4.12-4.615Z"/></svg>
